!!!OTL: DAS VOLK STEHT AUF DER STURM BRICHT LOS
!!!ARE: Europa, Mitteleuropa, Deutschland
!!!SCT: B0062
!!!YEM: Copyright 1995, estate of Helmut Schaffrath.
**kern
*ICvox
*Ivox
*M4/4
*k[]
*C:
{4G
=1
4c
4G
4E
4G
=2
4c
4d
4e
8r}
{8e
=3
4e
8.d
16e
4f
4e
=4
8e
8d
8d
8d
4d
4r}
=5
{4d
8.d
16d
4g
4d
=6
4B
8.d
16d
4B
4G}
=7
{4d
8.d
16d
4g
4d
=8
4B
8.d
16d
8g
8f
8e
8d}
=9
{4c
8.c
16B
4d
8.d
16d
=10
4e
8.g
16e
4d
8.c
16d
=11
4e
8g
8e
4d}
{8c
8e
=12
4.g
8f
4e
4e
=13
8d
8c
8d
8e
4c}
{8c
8e
=14
4.g
8f
4e
4e
=15
8d
8c
8d
8e
4c}
{4g
=16
4.cc
8g
4e
4c
=17
4.g
8g
4g}
{8.e
16e
=18
4e
8.e
16e
4e
8.e
16e
=19
8.e
16e
8.g
16g
[2g
=20
2g]
4r}
==
!!!AGN: Kriegs -, Sieges -, Soldaten - Lied
!!!ONB: ESAC (Essen Associative Code) Database: BOEHME
!!!AMT: simple quadruple
!!!AIN: vox
!!!EED: Helmut Schaffrath
!!!EEV: 1.0
*-
